Yaru++/actions/16/path-combine.svg

<svg viewBox="0 0 16 16" xmlns="http://www.w3.org/2000/svg"><g fill="#808080"><path d="m9.5 3a3.5 3.5 0 0 0 -3.4589844 3h3.9589844v3.9609375a3.5 3.5 0 0 0 3-3.4609375 3.5 3.5 0 0 0 -3.5-3.5zm-3.4589844 3a3.5 3.5 0 0 0 -.0292968.28125 3.5 3.5 0 0 1 .0292968-.28125zm-.0410156.5a3.5 3.5 0 0 0 .015625.3105469 3.5 3.5 0 0 1 -.015625-.3105469zm.0332031.4492188a3.5 3.5 0 0 0 .0058594.0507812h-3.0390625v6h6v-3.0390625a3.5 3.5 0 0 1 -2.9667969-3.0117187zm3.03125 3.0195312a3.5 3.5 0 0 0 .1230469.015625 3.5 3.5 0 0 1 -.1230469-.015625zm.7734375.0117188a3.5 3.5 0 0 1 -.3378906.0195312 3.5 3.5 0 0 0 .3378906-.0195312z" fill-opacity=".5"/><path d="m9.5039062 2a4.5 4.5 0 0 0 -4.4667968 4h-3.0371094v8h8v-3.029297a4.5 4.5 0 0 0 4.003906-4.470703 4.5 4.5 0 0 0 -4.4999998-4.5zm0 1a3.5 3.5 0 0 1 3.4999998 3.5 3.5 3.5 0 0 1 -3.003906 3.4609375v-3.9609375h-3.9550781a3.5 3.5 0 0 1 3.4589843-3zm-6.5039062 4h2.0351562a4.5 4.5 0 0 0 3.9648438 3.966797v2.033203h-6zm3.0429688 0h2.9570312v2.9589844a3.5 3.5 0 0 1 -2.9570312-2.9589844z"/></g></svg>

<svg xmlns="http://www.w3.org/2000/svg" viewBox="0 0 16 16">
 <defs>
  <style id="current-color-scheme" type="text/css">
   .ColorScheme-Text { color:#808080; } .ColorScheme-Highlight { color:#1d99f3; }
  </style>
 </defs>
 <path style="fill:currentColor;fill-opacity:0.5" class="ColorScheme-Text" d="M 9.5 3 A 3.5 3.5 0 0 0 6.0410156 6 L 10 6 L 10 9.9609375 A 3.5 3.5 0 0 0 13 6.5 A 3.5 3.5 0 0 0 9.5 3 z M 6.0410156 6 A 3.5 3.5 0 0 0 6.0117188 6.28125 A 3.5 3.5 0 0 1 6.0410156 6 z M 6 6.5 A 3.5 3.5 0 0 0 6.015625 6.8105469 A 3.5 3.5 0 0 1 6 6.5 z M 6.0332031 6.9492188 A 3.5 3.5 0 0 0 6.0390625 7 L 3 7 L 3 13 L 9 13 L 9 9.9609375 A 3.5 3.5 0 0 1 6.0332031 6.9492188 z M 9.0644531 9.96875 A 3.5 3.5 0 0 0 9.1875 9.984375 A 3.5 3.5 0 0 1 9.0644531 9.96875 z M 9.8378906 9.9804688 A 3.5 3.5 0 0 1 9.5 10 A 3.5 3.5 0 0 0 9.8378906 9.9804688 z"/>
 <path fill="#808080" class="ColorScheme-Highlight" d="M 9.5039062 2 A 4.5 4.5 0 0 0 5.0371094 6 L 2 6 L 2 14 L 10 14 L 10 10.970703 A 4.5 4.5 0 0 0 14.003906 6.5 A 4.5 4.5 0 0 0 9.5039062 2 z M 9.5039062 3 A 3.5 3.5 0 0 1 13.003906 6.5 A 3.5 3.5 0 0 1 10 9.9609375 L 10 6 L 6.0449219 6 A 3.5 3.5 0 0 1 9.5039062 3 z M 3 7 L 5.0351562 7 A 4.5 4.5 0 0 0 9 10.966797 L 9 13 L 3 13 L 3 7 z M 6.0429688 7 L 9 7 L 9 9.9589844 A 3.5 3.5 0 0 1 6.0429688 7 z"/>
</svg>
